www/assets/icons/mic_external_on.svg

<svg xmlns="http://www.w3.org/2000/svg" width="24" height="24" viewBox="0 0 24 24" fill='currentColor'><path d="M9.22 7H4.78C4.3 6.47 4 5.77 4 5c0-1.66 1.34-3 3-3s3 1.34 3 3c0 .77-.3 1.47-.78 2M16 2c2.21 0 4 1.79 4 4v16h-2V6c0-1.1-.9-2-2-2s-2 .9-2 2v12c0 2.21-1.79 4-4 4s-4-1.79-4-4H5L4 8h6L9 18H8c0 1.1.9 2 2 2s2-.9 2-2V6c0-2.21 1.79-4 4-4"/></svg>

<svg width="24" height="24" viewBox="0 0 24 24" xmlns="http://www.w3.org/2000/svg" fill='currentColor'><path d="M9.22 7H4.78C4.3 6.47 4 5.77 4 5C4 3.34 5.34 2 7 2C8.66 2 10 3.34 10 5C10 5.77 9.7 6.47 9.22 7ZM16 2C18.21 2 20 3.79 20 6V22H18V6C18 4.9 17.1 4 16 4C14.9 4 14 4.9 14 6V18C14 20.21 12.21 22 10 22C7.79 22 6 20.21 6 18H5L4 8H10L9 18H8C8 19.1 8.9 20 10 20C11.1 20 12 19.1 12 18V6C12 3.79 13.79 2 16 2Z"/></svg>
